src/components/crossDevice/ClientSuccess/assets/return-to-computer-large.svg

<svg width="144" height="144" viewBox="0 0 144 144" fill="none" xmlns="http://www.w3.org/2000/svg">
<path d="M52.2857 26H28.5357C24.7881 26 21.75 29.0381 21.75 32.7857V83.6786C21.75 87.4262 24.7881 90.4643 28.5357 90.4643H52.2857C56.0334 90.4643 59.0714 87.4262 59.0714 83.6786V32.7857C59.0714 29.0381 56.0334 26 52.2857 26Z" fill="white" stroke="#2B2D33" stroke-width="3.39286"/>
<path d="M40.4104 86.2232C42.2843 86.2232 43.8033 84.7042 43.8033 82.8304C43.8033 80.9565 42.2843 79.4375 40.4104 79.4375C38.5366 79.4375 37.0176 80.9565 37.0176 82.8304C37.0176 84.7042 38.5366 86.2232 40.4104 86.2232Z" fill="white" stroke="#2B2D33" stroke-width="1.69643"/>
<path d="M47.196 31.0894H33.6246C33.1561 31.0894 32.7764 31.4691 32.7764 31.9376C32.7764 32.406 33.1561 32.7858 33.6246 32.7858H47.196C47.6645 32.7858 48.0442 32.406 48.0442 31.9376C48.0442 31.4691 47.6645 31.0894 47.196 31.0894Z" fill="#2B2D33"/>
<path d="M40.411 67.5625C46.0325 67.5625 50.5896 63.0054 50.5896 57.3839C50.5896 51.7624 46.0325 47.2053 40.411 47.2053C34.7895 47.2053 30.2324 51.7624 30.2324 57.3839C30.2324 63.0054 34.7895 67.5625 40.411 67.5625Z" fill="#3640F5"/>
<path fill-rule="evenodd" clip-rule="evenodd" d="M43.9452 53.5814L38.9682 58.8628L37.7242 57.5425C37.1744 56.9613 36.2831 56.9613 35.7336 57.5425C35.1838 58.1273 35.1838 59.0745 35.7336 59.6558L37.9731 62.0346C38.5229 62.6194 39.4139 62.6194 39.9637 62.0346L45.9357 55.6947C46.4855 55.1099 46.4855 54.1627 45.9357 53.5814C45.386 52.9966 44.4949 52.9966 43.9452 53.5814Z" fill="#F7F9FA"/>
<path d="M121.839 56.5356H53.982C50.2344 56.5356 47.1963 59.5737 47.1963 63.3214V104.036C47.1963 107.783 50.2344 110.821 53.982 110.821H121.839C125.587 110.821 128.625 107.783 128.625 104.036V63.3214C128.625 59.5737 125.587 56.5356 121.839 56.5356Z" fill="white"/>
<path d="M53.982 59.9285C52.1082 59.9285 50.5891 61.4475 50.5891 63.3214V104.036C50.5891 105.909 52.1082 107.429 53.982 107.429H121.839C123.713 107.429 125.232 105.909 125.232 104.036V63.3214C125.232 61.4475 123.713 59.9285 121.839 59.9285H53.982ZM53.982 56.5356H121.839C125.587 56.5356 128.625 59.5737 128.625 63.3214V104.036C128.625 107.783 125.587 110.821 121.839 110.821H53.982C50.2344 110.821 47.1963 107.783 47.1963 104.036V63.3214C47.1963 59.5737 50.2344 56.5356 53.982 56.5356Z" fill="#2B2D33"/>
<path d="M106.572 117.607H69.2501C68.3132 117.607 67.5537 118.367 67.5537 119.304C67.5537 120.241 68.3132 121 69.2501 121H106.572C107.508 121 108.268 120.241 108.268 119.304C108.268 118.367 107.508 117.607 106.572 117.607Z" fill="#2B2D33"/>
<path fill-rule="evenodd" clip-rule="evenodd" d="M68.4019 102.339H107.42C107.888 102.339 108.268 102.719 108.268 103.187C108.268 103.656 107.888 104.036 107.42 104.036H68.4019C67.9335 104.036 67.5537 103.656 67.5537 103.187C67.5537 102.719 67.9335 102.339 68.4019 102.339Z" fill="#2B2D33"/>
<path d="M89.6067 109.125C89.6067 108.188 88.8472 107.428 87.9103 107.428C86.9734 107.428 86.2139 108.188 86.2139 109.125V119.303C86.2139 120.24 86.9734 121 87.9103 121C88.8472 121 89.6067 120.24 89.6067 119.303V109.125Z" fill="#2B2D33"/>
<path d="M75.2926 66.1825C77.2974 58.2271 72.5252 49.9614 64.6332 47.7199C60.6863 46.599 56.7074 47.1963 53.4646 49.0685" stroke="#2B2D33" stroke-width="2.54464" stroke-linecap="round" stroke-linejoin="round"/>
<path d="M78.8242 66.166L74.4168 68.7107L71.8721 64.3032" stroke="#2B2D33" stroke-width="2.54464" stroke-linecap="round" stroke-linejoin="round"/>
</svg>

<svg width="144" height="144" fill="none" xmlns="http://www.w3.org/2000/svg">
  <path d="M52.286 26h-23.75a6.786 6.786 0 0 0-6.786 6.786v50.893a6.786 6.786 0 0 0 6.786 6.785h23.75a6.786 6.786 0 0 0 6.785-6.785V32.786A6.786 6.786 0 0 0 52.286 26z" fill="#fff" stroke="#2B2D33" stroke-width="3.393"/>
  <path d="M40.41 86.223a3.393 3.393 0 1 0 0-6.785 3.393 3.393 0 0 0 0 6.785z" fill="#fff" stroke="#2B2D33" stroke-width="1.696"/>
  <path d="M47.196 31.09H33.625a.848.848 0 1 0 0 1.696h13.571a.848.848 0 1 0 0-1.697z" fill="#2B2D33"/>
  <path d="M40.411 67.563c5.621 0 10.179-4.558 10.179-10.18 0-5.62-4.558-10.178-10.179-10.178-5.622 0-10.179 4.557-10.179 10.179 0 5.621 4.557 10.178 10.179 10.178z" fill="#3640F5"/>
  <path fill-rule="evenodd" clip-rule="evenodd" d="m43.945 53.581-4.977 5.282-1.244-1.32a1.354 1.354 0 0 0-1.99 0 1.56 1.56 0 0 0 0 2.113l2.24 2.379c.549.584 1.44.584 1.99 0l5.972-6.34a1.56 1.56 0 0 0 0-2.114 1.348 1.348 0 0 0-1.99 0z" fill="#F7F9FA"/>
  <path d="M121.839 56.536H53.982a6.786 6.786 0 0 0-6.786 6.785v40.715a6.786 6.786 0 0 0 6.786 6.785h67.857a6.786 6.786 0 0 0 6.786-6.785V63.321a6.786 6.786 0 0 0-6.786-6.785z" fill="#fff"/>
  <path d="M53.982 59.928a3.393 3.393 0 0 0-3.393 3.393v40.715a3.394 3.394 0 0 0 3.393 3.393h67.857a3.394 3.394 0 0 0 3.393-3.393V63.321a3.393 3.393 0 0 0-3.393-3.392H53.982zm0-3.392h67.857a6.786 6.786 0 0 1 6.786 6.785v40.715a6.786 6.786 0 0 1-6.786 6.785H53.982a6.786 6.786 0 0 1-6.786-6.785V63.321a6.786 6.786 0 0 1 6.786-6.785zM106.572 117.607H69.25a1.697 1.697 0 0 0 0 3.393h37.322a1.696 1.696 0 0 0 0-3.393z" fill="#2B2D33"/>
  <path fill-rule="evenodd" clip-rule="evenodd" d="M68.402 102.339h39.018a.848.848 0 0 1 0 1.697H68.402a.849.849 0 0 1 0-1.697z" fill="#2B2D33"/>
  <path d="M89.607 109.125a1.697 1.697 0 1 0-3.393 0v10.178a1.697 1.697 0 1 0 3.393 0v-10.178z" fill="#2B2D33"/>
  <path d="M75.293 66.183c2.004-7.956-2.768-16.222-10.66-18.463-3.947-1.121-7.926-.524-11.168 1.349" stroke="#2B2D33" stroke-width="2.545" stroke-linecap="round" stroke-linejoin="round"/>
  <path d="m78.824 66.166-4.407 2.545-2.545-4.408" stroke="#2B2D33" stroke-width="2.545" stroke-linecap="round" stroke-linejoin="round"/>
</svg>
